X: 193
T: Shouliede gege huilai
L: 1/8
M: 4/4
K: E
B e G/ B/ F/ G/ E GB,2 [I:setbarnb 1]| 
B e G/ B/ F/ G/B4 | 
B e G B F G (3E/ F/ G/ C/ B,/ | 
G, B, C EB,4 | 
G,2B,> C EE2C/ B,/ | 
G,2B, CE4 | 
B e G F E G C/ B,/ G, | 
B,2C EB,4 | 
B e G/ B/ F/ G/ E GB,2 | 
B e G/ B/ F/ G/B4 | 
B e G B F G (3E/ F/ G/ C/ B,/ | 
G, B, C EB,4 | 
G,2B,> C EE2C/ B,/ | 
G,2B, CE4 | 
B e G F E G C/ B,/ G, | 
B,2C EB,4 | 
B e G/ B/ F/ G/ E GB,2 | 
B e G/ B/ F/ G/B4 | 
B e G B F G (3E/ F/ G/ C/ B,/ | 
G, B, C EB,4 | 
G,2B,> C EE2C/ B,/ | 
C2E> GF4 | 
B e G F E G C/ B,/ G, | 
B e G F/ G/B4 |]

@@@ Tune index: 8861
